X:3
T:Elvet
M:4/4
L:1/8
K:Emin
|:EGFG EGFD|EGFG AA A2|EGFG EGFD|EG A2GDE2:|
|:BB A/B/A GEF2|BB A/B/A/G/ GF E2|BB A/B/A GEF2|BB A/B/A/G/ GF E2:|
